build/assets/fonts/5c500045ab6cd762cd5f9abd393c2577.svg

<svg width="101" height="61" viewBox="0 0 101 61" version="1.1" xmlns="http://www.w3.org/2000/svg" xmlns:xlink="http://www.w3.org/1999/xlink"><title>Amazon-light</title><desc>Created with Sketch.</desc><g id="Light-Payment-badges" stroke="none" stroke-width="1" fill="none" fill-rule="evenodd" transform="translate(-289.000000, -1088.000000)"><g id="Amazon-light" transform="translate(289.000000, 1088.000000)"><rect id="Rectangle" fill="#FFF" x=".559" y=".548" width="100" height="60" rx="4"/><path d="M59.2201027,36.6583529 C55.0390979,39.7377711 48.9789867,41.380752 43.7613439,41.380752 C36.4453669,41.380752 29.8591102,38.6768746 24.8763525,34.1797995 C24.4848732,33.8261654 24.8356372,33.3442259 25.3054147,33.6196194 C30.6827816,36.7459795 37.331679,38.6268027 44.1998028,38.6268027 C48.8317905,38.6268027 53.9272937,37.6691775 58.6125256,35.6819532 C59.3203217,35.3815208 59.9122389,36.1451171 59.2201027,36.6583529" id="path8" fill="#F90"/><path d="M60.9582749,34.6711286 C60.4258602,33.9889005 57.4255589,34.3487919 56.0788683,34.5083959 C55.6685958,34.5584678 55.605961,34.2017062 55.9755159,33.9450859 C58.3651103,32.2645514 62.2861746,32.749622 62.7434232,33.3129296 C63.2006695,33.8793683 62.6244133,37.8068772 60.378883,39.6814383 C60.034381,39.9693512 59.7055377,39.8160081 59.8589996,39.4342088 C60.3632243,38.1761547 61.4938194,35.3564867 60.9582749,34.6711286" id="path10" fill="#F90"/><path d="M56.1728241,22.0811971 L56.1728241,20.4476046 C56.1728241,20.2003751 56.3607344,20.0345125 56.5862265,20.0345125 L63.9053333,20.0345125 C64.1402233,20.0345125 64.3281336,20.203505 64.3281336,20.4476046 L64.3281336,21.8464859 C64.3250037,22.0811971 64.1276956,22.3878868 63.776928,22.8729574 L59.9842715,28.2838432 C61.3936004,28.2494206 62.881224,28.4590941 64.1590142,29.1788771 C64.4471435,29.3416098 64.5254393,29.5794509 64.5473624,29.8141645 L64.5473624,31.5572891 C64.5473624,31.7951302 64.2842873,32.0736523 64.0086857,31.9296977 C61.7568921,30.7498795 58.7659863,30.6215705 56.2761741,31.9422159 C56.0224956,32.0799133 55.7562895,31.8045186 55.7562895,31.5666775 L55.7562895,29.9111783 C55.7562895,29.645172 55.7594193,29.1913942 56.0256254,28.7876905 L60.419597,22.4911604 L56.5956219,22.4911604 C56.3607344,22.4911604 56.1728241,22.3252991 56.1728241,22.0811971" id="path12" fill="#221F1F"/><path d="M29.4738918,32.2739398 L27.2471548,32.2739398 C27.0341915,32.2582941 26.8650709,32.0986901 26.8494111,31.8952715 L26.8494111,20.4757722 C26.8494111,20.2473195 27.0404536,20.0658076 27.2784733,20.0658076 L29.3548819,20.0658076 C29.570981,20.07519 29.7432302,20.2410586 29.7588913,20.4476046 L29.7588913,21.9403723 L29.7996053,21.9403723 C30.341413,20.4976764 31.3592591,19.8248367 32.7310063,19.8248367 C34.1246741,19.8248367 34.9953251,20.4976764 35.6216931,21.9403723 C36.1603698,20.4976764 37.3849183,19.8248367 38.6971605,19.8248367 C39.6304487,19.8248367 40.6514282,20.2097635 41.274664,21.0735023 C41.9793278,22.0342551 41.8352626,23.4300065 41.8352626,24.653638 L41.8321316,31.860849 C41.8321316,32.0893017 41.6410891,32.2739398 41.4030693,32.2739398 L39.1794621,32.2739398 C38.9571034,32.2582941 38.7785885,32.0799133 38.7785885,31.860849 L38.7785885,25.8084185 C38.7785885,25.3264778 38.8224324,24.1247541 38.7159514,23.6678476 C38.5499642,22.901125 38.0520015,22.6851882 37.4068414,22.6851882 C36.8681647,22.6851882 36.3044339,23.0450797 36.0758095,23.6209068 C35.8471852,24.1967327 35.8691083,25.1606129 35.8691083,25.8084185 L35.8691083,31.860849 C35.8691083,32.0893017 35.6780658,32.2739398 35.4400461,32.2739398 L33.2164413,32.2739398 C32.9909492,32.2582941 32.8155654,32.0799133 32.8155654,31.860849 L32.8124343,25.8084185 C32.8124343,24.5347175 33.0222654,22.6601528 31.4406884,22.6601528 C29.8403169,22.6601528 29.9029541,24.4877731 29.9029541,25.8084185 L29.9029541,31.860849 C29.9029541,32.0893017 29.7119116,32.2739398 29.4738918,32.2739398" id="path14" fill="#221F1F"/><path d="M70.6293944,19.8248367 C73.9334848,19.8248367 75.7217642,22.6601528 75.7217642,26.2653239 C75.7217642,29.7484433 73.7455722,32.5117809 70.6293944,32.5117809 C67.3848076,32.5117809 65.618449,29.6764647 65.618449,26.1432734 C65.618449,22.5881743 67.4067308,19.8248367 70.6293944,19.8248367 M70.6481841,22.1563067 C69.0071022,22.1563067 68.9037498,24.3907592 68.9037498,25.7833832 C68.9037498,27.1791346 68.8818267,30.1584066 70.6293944,30.1584066 C72.3550377,30.1584066 72.4364658,27.7549617 72.4364658,26.290358 C72.4364658,25.3264778 72.3957518,24.174826 72.1044891,23.2610141 C71.8539416,22.4661263 71.3559814,22.1563067 70.6481841,22.1563067" id="path16" fill="#221F1F"/><path d="M80.0061213,32.2739398 L77.7887797,32.2739398 C77.5664174,32.2582941 77.3879026,32.0799133 77.3879026,31.860849 L77.3847728,20.4382162 C77.4035637,20.2285403 77.5883429,20.0658076 77.813835,20.0658076 L79.8777184,20.0658076 C80.0718907,20.07519 80.2316146,20.2066348 80.2754621,20.3850156 L80.2754621,22.1312689 L80.3161737,22.1312689 C80.9394119,20.569655 81.8131927,19.8248367 83.3509258,19.8248367 C84.3499822,19.8248367 85.3239856,20.1847282 85.9503536,21.1705162 C86.5328754,22.0843269 86.5328754,23.6209068 86.5328754,24.7256142 L86.5328754,31.9140507 C86.5078212,32.1143358 86.323042,32.2739398 86.1038155,32.2739398 L83.8708128,32.2739398 C83.6672415,32.2582941 83.4981221,32.1080785 83.4762013,31.9140507 L83.4762013,25.7114046 C83.4762013,24.4627389 83.6202654,22.6351163 82.0825311,22.6351163 C81.5407246,22.6351163 81.0427607,22.9981389 80.7953455,23.548927 C80.4821632,24.2468045 80.4414492,24.941551 80.4414492,25.7114046 L80.4414492,31.860849 C80.4383194,32.0893017 80.2441435,32.2739398 80.0061237,32.2739398" id="path18" fill="#221F1F"/><path d="M50.3382062,26.8192431 C50.3382062,27.6861106 50.3601293,28.4090223 49.9216716,29.1788771 C49.5677741,29.8047761 49.0040433,30.1897029 48.3808075,30.1897029 C47.5258151,30.1897029 47.0247214,29.5387674 47.0247214,28.5780147 C47.0247214,26.6815457 48.7253095,26.3373024 50.3382062,26.3373024 L50.3382062,26.8192431 M52.5837354,32.2426448 C52.4365403,32.3740836 52.2235735,32.383472 52.0575863,32.2958477 C51.3184716,31.6824682 51.1838031,31.3976851 50.7797961,30.8124708 C49.5583787,32.0580066 48.6908575,32.430414 47.1092793,32.430414 C45.2333075,32.430414 43.7770026,31.2756335 43.7770026,28.9629439 C43.7770026,27.1572279 44.7541381,25.927339 46.1509382,25.3264778 C47.359828,24.7944628 49.0478871,24.70058 50.3382062,24.5534943 L50.3382062,24.2655813 C50.3382062,23.7366962 50.3789202,23.1107985 50.0657368,22.6538955 C49.7963985,22.2439309 49.2765115,22.0749385 48.816133,22.0749385 C47.9674027,22.0749385 47.2126317,22.5099372 47.0278513,23.4112297 C46.9902695,23.6115184 46.8430744,23.808676 46.639503,23.8180644 L44.4816665,23.5864806 C44.3000194,23.5457995 44.0964505,23.3987114 44.1496922,23.1201893 C44.6445225,20.5039374 47.0121938,19.7153045 49.1293152,19.7153045 C50.2129331,19.7153045 51.628524,20.0032175 52.4835164,20.823143 C53.5671318,21.8339676 53.4637818,23.182777 53.4637818,24.6505082 L53.4637818,28.1179806 C53.4637818,29.1601015 53.8959751,29.6170045 54.3031143,30.1803145 C54.4440485,30.3805996 54.4753671,30.6215705 54.2937129,30.7717861 C53.8395964,31.1504556 53.0315814,31.8545905 52.5868604,32.2489057 L52.5837306,32.2426388" id="path28" fill="#221F1F"/><path d="M21.1463331,26.8192431 C21.1463331,27.6861106 21.1682539,28.4090223 20.7297984,29.1788771 C20.3758986,29.8047761 19.8152999,30.1897029 19.1889319,30.1897029 C18.3339396,30.1897029 17.8359781,29.5387674 17.8359781,28.5780147 C17.8359781,26.6815457 19.5365661,26.3373024 21.1463331,26.3373024 L21.1463331,26.8192431 M23.3918611,32.2426448 C23.2446648,32.3740836 23.031698,32.383472 22.8657109,32.2958477 C22.1265986,31.6824682 21.9950598,31.3976851 21.5879207,30.8124708 C20.3665031,32.0580066 19.5021177,32.430414 17.917405,32.430414 C16.0445641,32.430414 14.5851293,31.2756335 14.5851293,28.9629439 C14.5851293,27.1572279 15.5653948,25.927339 16.9590626,25.3264778 C18.1679524,24.7944628 19.856014,24.70058 21.1463331,24.5534943 L21.1463331,24.2655813 C21.1463331,23.7366962 21.1870472,23.1107985 20.8769948,22.6538955 C20.6045229,22.2439309 20.0846395,22.0749385 19.6273896,22.0749385 C18.7786629,22.0749385 18.0207562,22.5099372 17.8359781,23.4112297 C17.7983951,23.6115184 17.6511988,23.808676 17.4507621,23.8180644 L15.2897932,23.5864806 C15.1081461,23.5457995 14.9077082,23.3987114 14.9578177,23.1201893 C15.4557803,20.5039374 17.8203182,19.7153045 19.9374432,19.7153045 C21.0210576,19.7153045 22.4366486,20.0032175 23.2916409,20.823143 C24.3752588,21.8339676 24.2719064,23.182777 24.2719064,24.6505082 L24.2719064,28.1179806 C24.2719064,29.1601015 24.7041021,29.6170045 25.1112412,30.1803145 C25.2553053,30.3805996 25.2866238,30.6215705 25.1049768,30.7717861 C24.6508604,31.1504556 23.8428465,31.8545905 23.3981231,32.2489057 L23.3918611,32.2426388" id="path30" fill="#221F1F"/></g></g></svg>

<svg width="101" height="61" xmlns="http://www.w3.org/2000/svg"><g fill="none" fill-rule="evenodd"><rect fill="#FFF" x=".559" y=".548" width="100" height="60" rx="4"/><path d="M59.22 36.658c-4.18 3.08-10.241 4.723-15.459 4.723-7.316 0-13.902-2.704-18.885-7.201-.391-.354-.04-.836.43-.56 5.377 3.126 12.026 5.007 18.894 5.007 4.632 0 9.727-.958 14.413-2.945.707-.3 1.3.463.607.976" fill="#F90"/><path d="M60.958 34.671c-.532-.682-3.532-.322-4.88-.163-.41.05-.472-.306-.102-.563 2.39-1.68 6.31-1.195 6.767-.632.458.566-.119 4.494-2.364 6.368-.345.288-.673.135-.52-.247.504-1.258 1.635-4.078 1.1-4.763" fill="#F90"/><path d="M56.173 22.081v-1.633c0-.248.188-.413.413-.413h7.32c.234 0 .422.169.422.413v1.398c-.003.235-.2.542-.551 1.027l-3.793 5.41c1.41-.034 2.897.176 4.175.896.288.163.366.4.388.635v1.743c0 .238-.263.517-.538.373-2.252-1.18-5.243-1.308-7.733.012-.254.138-.52-.137-.52-.375V29.91c0-.266.003-.72.27-1.123l4.394-6.297h-3.824c-.235 0-.423-.166-.423-.41M29.474 32.274h-2.227a.42.42 0 0 1-.398-.379v-11.42c0-.228.191-.41.43-.41h2.076a.42.42 0 0 1 .404.383v1.492h.04c.542-1.442 1.56-2.115 2.932-2.115 1.394 0 2.264.673 2.89 2.115.54-1.442 1.764-2.115 3.076-2.115.933 0 1.954.385 2.578 1.249.704.96.56 2.356.56 3.58l-.003 7.207a.42.42 0 0 1-.429.413H39.18a.423.423 0 0 1-.4-.413v-6.053c0-.482.043-1.683-.063-2.14-.166-.767-.664-.983-1.31-.983-.538 0-1.102.36-1.33.936-.229.576-.207 1.54-.207 2.187v6.053a.42.42 0 0 1-.429.413h-2.224a.42.42 0 0 1-.4-.413l-.004-6.053c0-1.273.21-3.148-1.371-3.148-1.6 0-1.538 1.828-1.538 3.148v6.053a.42.42 0 0 1-.43.413M70.63 19.825c3.303 0 5.092 2.835 5.092 6.44 0 3.483-1.976 6.247-5.093 6.247-3.244 0-5.01-2.836-5.01-6.369 0-3.555 1.788-6.318 5.01-6.318m.02 2.331c-1.642 0-1.745 2.235-1.745 3.627 0 1.396-.022 4.375 1.725 4.375 1.726 0 1.807-2.403 1.807-3.868 0-.964-.04-2.115-.332-3.029-.25-.795-.748-1.105-1.456-1.105m9.358 10.118H77.79a.423.423 0 0 1-.401-.413l-.003-11.423a.421.421 0 0 1 .429-.372h2.064c.194.01.354.14.397.319v1.746h.041c.623-1.561 1.497-2.306 3.035-2.306.999 0 1.973.36 2.6 1.346.582.913.582 2.45.582 3.555v7.188c-.025.2-.21.36-.43.36h-2.232a.422.422 0 0 1-.395-.36v-6.203c0-1.248.144-3.076-1.393-3.076-.542 0-1.04.363-1.288.914-.313.698-.354 1.393-.354 2.162v6.15a.428.428 0 0 1-.435.413M50.338 26.82c0 .866.022 1.589-.416 2.359-.354.626-.918 1.01-1.541 1.01-.855 0-1.356-.65-1.356-1.611 0-1.896 1.7-2.24 3.313-2.24v.481m2.246 5.424a.465.465 0 0 1-.526.053c-.74-.614-.874-.898-1.278-1.484-1.222 1.246-2.09 1.618-3.67 1.618-1.877 0-3.333-1.154-3.333-3.467 0-1.806.977-3.036 2.374-3.637 1.209-.532 2.897-.625 4.187-.773v-.287c0-.53.04-1.155-.272-1.612-.27-.41-.79-.58-1.25-.58-.849 0-1.603.436-1.788 1.337-.038.2-.185.398-.388.407l-2.158-.232c-.182-.04-.386-.187-.332-.466.495-2.616 2.862-3.405 4.98-3.405 1.083 0 2.499.288 3.354 1.108 1.083 1.011.98 2.36.98 3.828v3.467c0 1.042.432 1.499.84 2.062.14.2.171.442-.01.592a94.47 94.47 0 0 0-1.707 1.477l-.003-.006M21.146 26.82c0 .866.022 1.589-.416 2.359-.354.626-.915 1.01-1.541 1.01-.855 0-1.353-.65-1.353-1.611 0-1.896 1.7-2.24 3.31-2.24v.481m2.246 5.424a.465.465 0 0 1-.526.053c-.74-.614-.87-.898-1.278-1.484-1.221 1.246-2.086 1.618-3.67 1.618-1.873 0-3.333-1.154-3.333-3.467 0-1.806.98-3.036 2.374-3.637 1.209-.532 2.897-.625 4.187-.773v-.287c0-.53.041-1.155-.269-1.612-.272-.41-.792-.58-1.25-.58-.848 0-1.606.436-1.791 1.337-.038.2-.185.398-.385.407l-2.161-.232c-.182-.04-.382-.187-.332-.466.498-2.616 2.862-3.405 4.98-3.405 1.083 0 2.499.288 3.354 1.108 1.083 1.011.98 2.36.98 3.828v3.467c0 1.042.432 1.499.84 2.062.143.2.175.442-.007.592a94.478 94.478 0 0 0-1.707 1.477l-.006-.006" fill="#221F1F"/></g></svg>
